X: 1
T: John Ryan's
C: Trad
R: Polka
G: Irish
M: 2/4
L: 1/8
K: Dmaj
Z: ABC transcription by Verge Roller
r: 32
|: "D" dd "G" B/c/d/B/ | "D" AF AF | "D" dd "G" B/c/d/B/ | "D" AF "A" ED |
 "D" dd "G" B/c/d/B/ | "D" AF Ad/e/ | "D" fd "A" ec |1 "D" d2 dA :|2 "D" d2 dd/e/|]
|: "D" fd de/f/ | "G" gf "A" ed/e/ | "D" fd Ad | "D" fd/f/ "A" a>g |
 "D" fd de/f/ | "G" gf "A" ed/e/ | "D" fd "A" ec |1 "D" d2 dd/e/ :|2 "D" d2 dA |]
